X:12
T:Flatbush Waltz (version for F ocarina)
Z:Jack Campin, http://www.campin.me.uk/
C:Andy Statman arr. Jack Campin
M:3/4
L:1/8
Q:1/4=120
K:GMin
   d3  g dc|B2  G2 G2|d2  dg  dB|c3 edc |
   BA Bc dB|cG  c2 c2|B3   c _AB|G3 GBd:|
|: b4    ag|a2 ^f2 d2|g2 =f2  e2|d6     |
[1 e2 d2 c2|d2  g2 a2|b3   a  bg|a6    :|
[2 e2 d2 c2|d2  G2 c2|B3   c _AB|G6    |]
